svg/fluentui-system-icons/ic_fluent_beach_48_filled.svg

<svg width="48" height="48" viewBox="0 0 48 48" fill="none" xmlns="http://www.w3.org/2000/svg">
<path d="M41.7589 25.6406C41.8874 25.4128 42.0144 25.1894 42.1235 25.0004C45.9895 18.3043 43.6953 9.74202 36.9992 5.87603C30.3031 2.01004 21.7408 4.30429 17.8748 11.0004L17.7489 11.2181C17.3365 11.9304 17.5671 12.8443 18.2716 13.2699L27.994 19.1439L22.608 28.0615C17.8974 28.4768 13.8729 30.9768 11.7076 34.514C11.8285 34.5029 11.9503 34.4985 12.0725 34.5011C12.7428 34.515 13.3924 34.7359 13.9322 35.1335C14.0153 35.1947 14.0953 35.2597 14.1718 35.3282C16.1438 32.4922 19.7042 30.5004 24.0007 30.5004C28.2983 30.5004 31.8594 32.4932 33.8311 35.3303C33.9084 35.2611 33.9891 35.1954 34.0731 35.1335C34.6129 34.7359 35.2625 34.515 35.9327 34.5011C36.0536 34.4986 36.1741 34.5028 36.2936 34.5136C34.1479 31.0087 30.1767 28.5223 25.5215 28.0733L30.1338 20.4367L39.6651 26.1953C40.3934 26.6353 41.3408 26.3816 41.7589 25.6406ZM36.6991 36.7139C36.4987 36.5788 36.2637 36.5049 36.0226 36.5006C36.0141 36.5004 36.0056 36.5004 35.9971 36.5004C35.9895 36.5004 35.982 36.5005 35.9744 36.5006C35.7166 36.506 35.466 36.591 35.2584 36.7439C35.0508 36.8968 34.8955 37.1102 34.8139 37.3548L34.8129 37.3575C34.771 37.4754 33.5169 41.0008 29.9999 41.0008C26.4799 41.0008 25.2349 37.5008 25.1859 37.3548C25.1025 37.1063 24.9432 36.8902 24.7304 36.7372C24.5175 36.5841 24.262 36.5018 23.9999 36.5018C23.7378 36.5018 23.4823 36.5841 23.2695 36.7372C23.0567 36.8902 22.8973 37.1063 22.8139 37.3548L22.8129 37.3575C22.771 37.4754 21.5169 41.0008 17.9999 41.0008C14.4799 41.0008 13.2349 37.5008 13.1899 37.3548C13.1758 37.3126 13.1596 37.2714 13.1412 37.2312C13.0532 37.0387 12.9177 36.8702 12.7461 36.7439C12.5385 36.591 12.2887 36.506 12.0309 36.5006L12.0094 36.5004C11.7588 36.4993 11.5135 36.5736 11.3054 36.7139C11.0916 36.858 10.9276 37.0648 10.8359 37.3058C10.8189 37.3508 9.09791 41.7508 5.25391 41.7508C4.92239 41.7508 4.60444 41.8825 4.37002 42.1169C4.1356 42.3513 4.00391 42.6692 4.00391 43.0008C4.00391 43.3323 4.1356 43.6502 4.37002 43.8846C4.60444 44.1191 4.92239 44.2508 5.25391 44.2508C6.61361 44.2112 7.94212 43.8341 9.11975 43.1533C10.2974 42.4724 11.2872 41.5094 11.9999 40.3508C12.6713 41.3206 13.5677 42.1133 14.6123 42.6609C15.657 43.2086 16.8188 43.495 17.9983 43.4956C19.1779 43.4962 20.34 43.211 21.3852 42.6643C22.4304 42.1177 23.3276 41.3259 23.9999 40.3568C24.6723 41.3259 25.5694 42.1177 26.6146 42.6643C27.6598 43.211 28.822 43.4962 30.0015 43.4956C31.181 43.495 32.3428 43.2086 33.3875 42.6609C34.4321 42.1133 35.3285 41.3206 35.9999 40.3508C36.713 41.5099 37.7034 42.4734 38.8818 43.1542C40.0602 43.835 41.3895 44.2119 42.7499 44.2508C43.0814 44.2508 43.3994 44.1191 43.6338 43.8846C43.8682 43.6502 43.9999 43.3323 43.9999 43.0008C43.9999 42.6692 43.8682 42.3513 43.6338 42.1169C43.3994 41.8825 43.0814 41.7508 42.7499 41.7508C40.2701 41.7508 38.6616 39.888 37.8355 38.5741L37.8352 38.5725C37.3918 37.867 37.1742 37.3201 37.1686 37.3058C37.0769 37.0648 36.9129 36.858 36.6991 36.7139Z" fill="#212121"/>
</svg>

<svg xmlns="http://www.w3.org/2000/svg" width="48" height="48"><path d="m41.759 25.64.364-.64C45.99 18.304 43.696 9.742 37 5.876 30.303 2.01 21.741 4.304 17.875 11l-.126.218a1.512 1.512 0 0 0 .523 2.052l9.722 5.874-5.386 8.918c-4.71.415-8.735 2.915-10.9 6.452a3.25 3.25 0 0 1 2.464.814C16.144 32.492 19.704 30.5 24 30.5c4.297 0 7.858 1.993 9.83 4.83a3.25 3.25 0 0 1 2.462-.817c-2.145-3.504-6.116-5.99-10.771-6.44l4.612-7.636 9.531 5.758a1.51 1.51 0 0 0 2.094-.554Zm-5.06 11.074a1.25 1.25 0 0 0-.676-.213h-.049a1.253 1.253 0 0 0-1.16.854l-.001.003C34.77 37.474 33.517 41 30 41c-3.52 0-4.765-3.5-4.814-3.646a1.25 1.25 0 0 0-2.372 0l-.001.003C22.77 37.474 21.517 41 18 41c-3.52 0-4.765-3.5-4.81-3.646a1.244 1.244 0 0 0-.444-.611 1.25 1.25 0 0 0-.715-.243h-.022a1.25 1.25 0 0 0-1.173.805c-.017.045-1.738 4.445-5.582 4.445a1.25 1.25 0 0 0 0 2.5A8.201 8.201 0 0 0 12 40.35a7.3 7.3 0 0 0 12 .006 7.3 7.3 0 0 0 12-.006 8.2 8.2 0 0 0 6.75 3.9 1.25 1.25 0 1 0 0-2.5c-2.48 0-4.088-1.863-4.914-3.177v-.002a8.536 8.536 0 0 1-.667-1.266 1.25 1.25 0 0 0-.47-.592Z"/></svg>
